X: 631
T: Ehl-i Aşkın Zevki
C: Ahmet Avni Konuk
O: Turkey
F: http://compmusic.upf.edu/node/140
N: sabazemzeme--kupe--musemmen--bir--ahmet_avni_konuk
N: makam= sabazemzeme
N: form= kupe
N: usul= musemmen = 8/8
M: 8/8
L: 1/16
K: C _1/4B _7/8d  
Q: 1/4=96
%%MIDI tuningsystem comma53
A_2/4BA2 B2c2 B_3/4dc4z2  | c_3/4dc2 d2cd2cc2 _2/4B/A/B/c/B2  | 
w:  Ehl_ *  *  i  aş *  *  kın   |  zev *  *  ki  dil *  *  de   | 
c4 _3/4d2e2 dce2 f2z2  | efg2 aggf egf4z2  | \
w:  mun ha sır *  *  dır   |  her  *  *  de *  me    | 
f4 f2ef g_7/8agf efe_3/4d  | 
w:  Mest  e der  *  *  *  â  | 
c_3/4dc2 dedc2_2/4BcB A2z2  | A2_B2 BAB4AB =dccB  | 
w:  şık *  *  la *  rı  *  *  vakt_  |  i  *  Sa *  bâ da   | 
_B4 BAGA BB/A/A4z2  | |


